<?xml version="1.0" encoding="UTF-8"?>
<!--
  Tiled spike map for the pixi-tiledmap integration.
  References real Kenney isometric-miniature-library sprites hosted on
  Cloudflare R2 at https://media.gamecodex.com/tile/library/iso/.
  Tile dims (256x128 iso) match the Kenney library kit's native size.
  This file exists to validate the loader path; replace with a Tiled-
  authored Avermere region once the editor pipeline is wired.
-->
<map version="1.10" tiledversion="1.11.0" orientation="isometric" renderorder="right-down" width="6" height="6" tilewidth="256" tileheight="128" infinite="0" backgroundcolor="#1a1410" nextlayerid="2" nextobjectid="1">
 <tileset firstgid="1" name="library-iso" tilewidth="256" tileheight="128" tilecount="3" columns="0">
  <grid orientation="orthogonal" width="1" height="1"/>
  <tile id="0">
   <image width="256" height="512" source="https://media.gamecodex.com/tile/library/iso/bookStand_S.png"/>
  </tile>
  <tile id="1">
   <image width="256" height="512" source="https://media.gamecodex.com/tile/library/iso/bookStandEmpty_S.png"/>
  </tile>
  <tile id="2">
   <image width="256" height="512" source="https://media.gamecodex.com/tile/library/iso/bookStand_E.png"/>
  </tile>
 </tileset>
 <layer id="1" name="ground" width="6" height="6">
  <data encoding="csv">
1,2,1,2,1,2,
2,3,2,3,2,3,
1,2,1,2,1,2,
2,3,2,3,2,3,
1,2,1,2,1,2,
2,3,2,3,2,3
</data>
 </layer>
</map>
